remix/System/toggle-line.svg

<svg viewBox="0 0 24 24" fill="currentColor" xmlns="http://www.w3.org/2000/svg"><path d="M8 7C5.23858 7 3 9.23858 3 12C3 14.7614 5.23858 17 8 17H16C18.7614 17 21 14.7614 21 12C21 9.23858 18.7614 7 16 7H8ZM8 5H16C19.866 5 23 8.13401 23 12C23 15.866 19.866 19 16 19H8C4.13401 19 1 15.866 1 12C1 8.13401 4.13401 5 8 5ZM8 15C6.34315 15 5 13.6569 5 12C5 10.3431 6.34315 9 8 9C9.65685 9 11 10.3431 11 12C11 13.6569 9.65685 15 8 15Z"/></svg>

<svg viewBox="0 0 24 24" xmlns="http://www.w3.org/2000/svg"><path fill="none" d="M0 0h24v24H0Z"/><path d="M8 7v0c-2.77 0-5 2.23-5 5 0 2.76 2.23 5 5 5h8v0c2.76 0 5-2.24 5-5 0-2.77-2.24-5-5-5H8Zm0-2h8v0c3.86 0 7 3.13 7 7 0 3.86-3.14 7-7 7H8v0c-3.87 0-7-3.14-7-7 0-3.87 3.13-7 7-7Zm0 10v0c-1.66 0-3-1.35-3-3 0-1.66 1.34-3 3-3v0c1.65 0 3 1.34 3 3 0 1.65-1.35 3-3 3Z"/></svg>
